foto_producto/04 Selva Brava - Selva.xmp
<x:xmpmeta xmlns:x="adobe:ns:meta/" x:xmptk="Selva Brava Organics">
 <rdf:RDF xmlns:rdf="http://www.w3.org/1999/02/22-rdf-syntax-ns#">
  <rdf:Description rdf:about=""
    xmlns:crs="http://ns.adobe.com/camera-raw-settings/1.0/"
    crs:PresetType="Normal"
    crs:Cluster=""
    crs:UUID="7B3F91C2A8554E0D8F26D14B60E7A3F1"
    crs:SupportsAmount="False"
    crs:SupportsColor="True"
    crs:SupportsMonochrome="False"
    crs:SupportsHighDynamicRange="True"
    crs:SupportsNormalDynamicRange="True"
    crs:SupportsSceneReferred="True"
    crs:SupportsOutputReferred="True"
    crs:CameraModelRestriction=""
    crs:Copyright="Selva Brava Organics"
    crs:ContactInfo=""
    crs:Version="16.0"
    crs:ProcessVersion="11.0"
    crs:WhiteBalance="As Shot"
    crs:IncrementalTemperature="+2"
    crs:IncrementalTint="+4"
    crs:Exposure2012="0.00"
    crs:Contrast2012="+10"
    crs:Highlights2012="-30"
    crs:Shadows2012="+18"
    crs:Whites2012="+6"
    crs:Blacks2012="-12"
    crs:Texture="+12"
    crs:Clarity2012="+8"
    crs:Dehaze="+10"
    crs:Vibrance="+8"
    crs:Saturation="-6"
    crs:ParametricShadows="0"
    crs:ParametricDarks="0"
    crs:ParametricLights="0"
    crs:ParametricHighlights="0"
    crs:ParametricShadowSplit="25"
    crs:ParametricMidtoneSplit="50"
    crs:ParametricHighlightSplit="75"
    crs:Sharpness="35"
    crs:SharpenRadius="1.0"
    crs:SharpenDetail="25"
    crs:SharpenEdgeMasking="30"
    crs:LuminanceSmoothing="10"
    crs:ColorNoiseReduction="25"
    crs:HueAdjustmentRed="0"
    crs:HueAdjustmentOrange="-4"
    crs:HueAdjustmentYellow="-10"
    crs:HueAdjustmentGreen="-8"
    crs:HueAdjustmentAqua="4"
    crs:HueAdjustmentBlue="6"
    crs:HueAdjustmentPurple="0"
    crs:HueAdjustmentMagenta="0"
    crs:SaturationAdjustmentRed="3"
    crs:SaturationAdjustmentOrange="6"
    crs:SaturationAdjustmentYellow="-12"
    crs:SaturationAdjustmentGreen="-22"
    crs:SaturationAdjustmentAqua="-12"
    crs:SaturationAdjustmentBlue="-14"
    crs:SaturationAdjustmentPurple="-22"
    crs:SaturationAdjustmentMagenta="-12"
    crs:LuminanceAdjustmentRed="2"
    crs:LuminanceAdjustmentOrange="5"
    crs:LuminanceAdjustmentYellow="4"
    crs:LuminanceAdjustmentGreen="6"
    crs:LuminanceAdjustmentAqua="2"
    crs:LuminanceAdjustmentBlue="-6"
    crs:LuminanceAdjustmentPurple="0"
    crs:LuminanceAdjustmentMagenta="0"
    crs:ColorGradeShadowHue="165"
    crs:ColorGradeShadowSat="14"
    crs:ColorGradeShadowLum="-2"
    crs:ColorGradeMidtoneHue="45"
    crs:ColorGradeMidtoneSat="5"
    crs:ColorGradeMidtoneLum="0"
    crs:ColorGradeHighlightHue="50"
    crs:ColorGradeHighlightSat="10"
    crs:ColorGradeHighlightLum="0"
    crs:ColorGradeGlobalHue="0"
    crs:ColorGradeGlobalSat="0"
    crs:ColorGradeGlobalLum="0"
    crs:ColorGradeBlending="50"
    crs:ColorGradeBalance="10"
    crs:PostCropVignetteAmount="-12"
    crs:PostCropVignetteMidpoint="50"
    crs:PostCropVignetteFeather="60"
    crs:PostCropVignetteRoundness="0"
    crs:PostCropVignetteStyle="1"
    crs:PostCropVignetteHighlightContrast="0"
    crs:GrainAmount="16"
    crs:GrainSize="22"
    crs:GrainFrequency="50"
    crs:ToneCurveName2012="Custom"
    crs:HasSettings="True">
   <crs:Name>
    <rdf:Alt>
     <rdf:li xml:lang="x-default">04 Selva Brava — Selva</rdf:li>
    </rdf:Alt>
   </crs:Name>
   <crs:ShortName>
    <rdf:Alt>
     <rdf:li xml:lang="x-default">Selva</rdf:li>
    </rdf:Alt>
   </crs:ShortName>
   <crs:Group>
    <rdf:Alt>
     <rdf:li xml:lang="x-default">Selva Brava Organics</rdf:li>
    </rdf:Alt>
   </crs:Group>
   <crs:Description>
    <rdf:Alt>
     <rdf:li xml:lang="x-default">Para bosque, vegetacion y producto en naturaleza. Verdes salvia apagados, sombras abiertas de sotobosque, bruma suave. Los verdes nunca a neon.</rdf:li>
    </rdf:Alt>
   </crs:Description>
   <crs:ToneCurvePV2012>
    <rdf:Seq>
      <rdf:li>0, 14</rdf:li>
      <rdf:li>64, 56</rdf:li>
      <rdf:li>128, 126</rdf:li>
      <rdf:li>192, 198</rdf:li>
      <rdf:li>255, 246</rdf:li>
    </rdf:Seq>
   </crs:ToneCurvePV2012>
   <crs:ToneCurvePV2012Red>
    <rdf:Seq>
      <rdf:li>0, 0</rdf:li>
      <rdf:li>255, 255</rdf:li>
    </rdf:Seq>
   </crs:ToneCurvePV2012Red>
   <crs:ToneCurvePV2012Green>
    <rdf:Seq>
      <rdf:li>0, 0</rdf:li>
      <rdf:li>255, 255</rdf:li>
    </rdf:Seq>
   </crs:ToneCurvePV2012Green>
   <crs:ToneCurvePV2012Blue>
    <rdf:Seq>
      <rdf:li>0, 0</rdf:li>
      <rdf:li>255, 255</rdf:li>
    </rdf:Seq>
   </crs:ToneCurvePV2012Blue>
  </rdf:Description>
 </rdf:RDF>
</x:xmpmeta>
